X: 2272
M: 6/8
L: 1/8
K: Gdor
|:\
vGFD uB2c | dBG GFD | uG2vA uB2uc | dBG uG2uB |\
|:\
dfd cdc | BdB AGF | vG2vA uB2uc | dBG uG2uc |\
dfd cfc | BdB AGA | FAc fed | cAF FAc :|


